symbols/web/pin/materialsymbolsrounded/pin_grad200fill1_24px.svg

<svg xmlns="http://www.w3.org/2000/svg" height="24" width="24"><path d="M3.85 20.75q-1.1 0-1.875-.775Q1.2 19.2 1.2 18.1V5.9q0-1.1.775-1.875.775-.775 1.875-.775h16.3q1.1 0 1.875.775.775.775.775 1.875v12.2q0 1.1-.775 1.875-.775.775-1.875.775Zm3.125-5.6q.275 0 .475-.2.2-.2.2-.475v-4.95q0-.275-.2-.475-.2-.2-.475-.2-.15 0-.35.062-.2.063-.325.163l-1.05.75q-.2.15-.25.413-.05.262.1.462.15.225.4.287.25.063.45-.087l.35-.25v3.825q0 .275.2.475.2.2.475.2Zm3.275 0H13q.25 0 .425-.175t.175-.425q0-.25-.175-.425T13 13.95h-1.8q.6-.575.938-.925.337-.35.412-.425.45-.45.7-.925.25-.475.25-1.025 0-.775-.587-1.287-.588-.513-1.463-.513-.525 0-.975.225-.45.225-.75.65-.15.2-.062.475.087.275.387.4.175.075.375.012.2-.062.4-.262.125-.125.288-.188.162-.062.337-.062.35 0 .575.162.225.163.225.438t-.1.512q-.1.238-.45.588-.1.1-.6.587-.5.488-1.325 1.338-.125.125-.2.312-.075.188-.075.363 0 .3.225.525.225.225.525.225Zm6.85 0q.95 0 1.525-.513.575-.512.575-1.387 0-.425-.212-.775-.213-.35-.638-.625v-.05q.325-.25.487-.575Q19 10.9 19 10.5q0-.725-.55-1.188-.55-.462-1.4-.462-.475 0-.937.212-.463.213-.738.538-.2.2-.075.5t.45.425q.175.05.375-.013.2-.062.4-.262.125-.1.25-.15.125-.05.275-.05.3 0 .5.15t.2.4q0 .325-.237.512-.238.188-.613.188-.2 0-.375.175t-.175.425q0 .25.175.425t.425.175q.475 0 .738.162.262.163.262.488 0 .3-.25.525-.25.225-.6.225-.275 0-.45-.075t-.3-.275q-.15-.225-.375-.325t-.45 0q-.275.125-.388.412-.112.288.013.513.275.5.775.75t1.175.25Z"/></svg>

<svg xmlns="http://www.w3.org/2000/svg" height="24" width="24"><path d="M3.85 20.75Q2.75 20.75 1.975 19.975Q1.2 19.2 1.2 18.1V5.9Q1.2 4.8 1.975 4.025Q2.75 3.25 3.85 3.25H20.15Q21.25 3.25 22.025 4.025Q22.8 4.8 22.8 5.9V18.1Q22.8 19.2 22.025 19.975Q21.25 20.75 20.15 20.75ZM6.975 15.15Q7.25 15.15 7.45 14.95Q7.65 14.75 7.65 14.475V9.525Q7.65 9.25 7.45 9.05Q7.25 8.85 6.975 8.85Q6.825 8.85 6.625 8.912Q6.425 8.975 6.3 9.075L5.25 9.825Q5.05 9.975 5 10.238Q4.95 10.5 5.1 10.7Q5.25 10.925 5.5 10.987Q5.75 11.05 5.95 10.9L6.3 10.65V14.475Q6.3 14.75 6.5 14.95Q6.7 15.15 6.975 15.15ZM10.25 15.15H13Q13.25 15.15 13.425 14.975Q13.6 14.8 13.6 14.55Q13.6 14.3 13.425 14.125Q13.25 13.95 13 13.95H11.3H11.2Q11.8 13.375 12.138 13.025Q12.475 12.675 12.55 12.6Q13 12.15 13.25 11.675Q13.5 11.2 13.5 10.65Q13.5 9.875 12.913 9.363Q12.325 8.85 11.45 8.85Q10.925 8.85 10.475 9.075Q10.025 9.3 9.725 9.725Q9.575 9.925 9.663 10.2Q9.75 10.475 10.05 10.6Q10.225 10.675 10.425 10.612Q10.625 10.55 10.825 10.35Q10.95 10.225 11.113 10.162Q11.275 10.1 11.45 10.1Q11.8 10.1 12.025 10.262Q12.25 10.425 12.25 10.7Q12.25 10.975 12.15 11.212Q12.05 11.45 11.7 11.8Q11.6 11.9 11.1 12.387Q10.6 12.875 9.775 13.725Q9.65 13.85 9.575 14.037Q9.5 14.225 9.5 14.4Q9.5 14.7 9.725 14.925Q9.95 15.15 10.25 15.15ZM17.1 15.15Q18.05 15.15 18.625 14.637Q19.2 14.125 19.2 13.25Q19.2 12.825 18.988 12.475Q18.775 12.125 18.35 11.85V11.8Q18.675 11.55 18.837 11.225Q19 10.9 19 10.5Q19 9.775 18.45 9.312Q17.9 8.85 17.05 8.85Q16.575 8.85 16.113 9.062Q15.65 9.275 15.375 9.6Q15.175 9.8 15.3 10.1Q15.425 10.4 15.75 10.525Q15.925 10.575 16.125 10.512Q16.325 10.45 16.525 10.25Q16.65 10.15 16.775 10.1Q16.9 10.05 17.05 10.05Q17.35 10.05 17.55 10.2Q17.75 10.35 17.75 10.6Q17.75 10.925 17.513 11.112Q17.275 11.3 16.9 11.3Q16.7 11.3 16.525 11.475Q16.35 11.65 16.35 11.9Q16.35 12.15 16.525 12.325Q16.7 12.5 16.95 12.5Q17.425 12.5 17.688 12.662Q17.95 12.825 17.95 13.15Q17.95 13.45 17.7 13.675Q17.45 13.9 17.1 13.9Q16.825 13.9 16.65 13.825Q16.475 13.75 16.35 13.55Q16.2 13.325 15.975 13.225Q15.75 13.125 15.525 13.225Q15.25 13.35 15.137 13.637Q15.025 13.925 15.15 14.15Q15.425 14.65 15.925 14.9Q16.425 15.15 17.1 15.15ZM4 17.95H20Q20 17.95 20 17.95Q20 17.95 20 17.95V6.05Q20 6.05 20 6.05Q20 6.05 20 6.05H4Q4 6.05 4 6.05Q4 6.05 4 6.05V17.95Q4 17.95 4 17.95Q4 17.95 4 17.95ZM4 17.95Q4 17.95 4 17.95Q4 17.95 4 17.95V6.05Q4 6.05 4 6.05Q4 6.05 4 6.05H20Q20 6.05 20 6.05Q20 6.05 20 6.05V17.95Q20 17.95 20 17.95Q20 17.95 20 17.95Z"/></svg>
